X:1
T:Title
%%score { ( 1 3 4 6 ) | ( 2 5 7 ) }
L:1/8
Q:1/4=102
M:4/4
K:G
V:1 treble nm="Grand Piano, Treble Clef       "
V:3 treble 
V:4 treble 
V:6 treble 
V:2 bass 
V:5 bass 
V:7 bass 
V:1
 (3z GA (3[D-G-B][D-Gd][DFc] (3[E-G-c][E-Ge][EAd] (3[G-B-d][G-Bg][GAf] | %1
 (3[B-g][Bd][GB] (3[B,-E-G][B,-EA][B,DB] (3[C-c][C-d][CFe] (3dc[DB] | %2
 (3AB[B,G] (3[C-F][C-G][CDA] (3DF[GA] (3cB[FA] | (3[GB]G[FA] (3Bd[Fc] (3[E-c][E-e][EAd] (3dg[Af] | %4
 (3gd[GB] (3[B,-G][B,-A][B,GB] (3Ed[Fc] (3BA[EG] | %5
 (3DG[CF] (3GB[Gd] (3[Bg][Gd][DB] (3[B,G][DB][Gd] | z4 z2 A2 | z4 c4 | z2 A2 z4 | %9
 (3[FAc]AF (3DF[DFA] (3[Fc]B[DFA] (3GG-[G-A] | (3G-[G-d][Gc] (3ced (3dgf (3gdB | %11
 (3[GB-][AB]B [CEA]B/c/ [DF][B,E] [CFA]2 | (3B,B[DA] z2 (3[E-c][E-e][EAd] (3dg[Af] | %13
 (3gd[GB] (3[B,-G][B,-A][B,DB] (3[C-c][C-d][CFe] (3dc[DB] | %14
 (3[C-A][C-B][B,CG] (3[C-F][C-G][CDA] (3DF[GA] (3cB[FA] | %15
 (3[GB]G[FA] (3Bd[Fc] (3[E-c][E-e][EAd] (3dg[Af] | %16
 (3gd[GB] (3[B,-G][B,-A][B,GB] (3Ed[Fc] (3BA[EG] | (3DG[CF] [DGB]4 [EGc]2 | A2 z2 z2 c2- | %19
 c2 z2 A2 z2 | (3[DFA]c[DGB] (3[FAc]AF (3DF[DFA] (3[Fc]B[DFA] | (3GG-[G-A] G2 (3ced (3dgf | %22
 (3gdB (3[GB-][AB]B [CEA]B/c/ B-[B,EB] | [CFA]2 (3B,B[DA] (3Bd[Fc] (3ce[Ad] | %24
 (3dg[Af] (3gd[GB] (3[B,-G][B,-A][B,DB] (3[C-c][C-d][CFe] | %25
 (3dc[DB] (3[C-A][C-B][B,CG] (3[C-F][C-G][CDA] (3DF[GA] | %26
 (3cB[FA] (3[GB]G[FA] (3Bd[Fc] (3[E-c][E-e][EAd] | %27
 (3dg[Af] (3gd[GB] (3[B,-G][B,-A][B,GB] (3Ed[Fc] | %28
 (3BA[EG] (3DG[CF] (3[B,DG][DB][Gd] (3[Bg][Gd][DB] | %29
 (3[B,G][DB][E^c] (3[FAd]DE (3[DF]A^G (3[DG]B[CA] | %30
 (3[C-E-A][C-E-c][CDEB] (3[Ec]AE (3[A,C]D[CE] (3[A,=F]d[Ec] | z4 z2 .A2 | %32
 (3d=f[Be] (3ea[B^g] (3ae[Ac] (3[C-A][C-B][CAc] | (3=fe[^Gd] (3cB[FA] (3EA[DG] (3[EA][Ec][Ae] | %34
 [ca]2 z2 z2 (3[ce]g=f | z8 | (3[Gce]g=f (3[Gcg]g[Gc] (3GA[D_B] (3Ac[E=B] | .=F2 .[GB]2 .c2 .c2 | %38
 .[Dd]2 B2 (3[GB]-[GBd][Fc] [CEGc]2 | z2 (3gd[GB] z4 | %40
 (3[D-G-B-d][D-G-Bc][DG-B-] [GB-]B (3DD-[^CDE] z2 | (3[DFA]c[DGB] (3[FAc]AF (3DF[DFA] (3cB[FA] | %42
 (3[B,-D-G][B,-DG-][B,-D-GA] [B,D] z (3z e[Ad] (3[Dd]-[D-d-g][D-Ad-f] | %43
 (3[D-G-dg][DGd][FB] (3B-[AB]B (3[A,EA]dc A/4.B/B/4A/4-[AB]/4A/4B/4 | %44
 [CFA](3:2:2G/G (3z Bd (3gdB (3GBd | (3=fdB (3GBd (3ecA (3FAc | (3dBG (3EGB (3cAF (3DFA | %47
 (3cB[DFA] (3[GB]G[DA] (3[D-B][D-d][DFc] (3[E-c][E-e][EAd] | %48
 (3dg[Af] (3gd[GB] (3[B,-G][B,-A][B,DB] (3cd[Fe] | (3[D-d][Dc][DB] (3AB[B,G] (3FG[DA] (3DF[GA] | %50
 (3cB[FA] (3[D-GB][D-G][DA] (3Bd[Fc] (3ce[Ad] | %51
 (3dg[Af][Q:1/4=95] (3gd[GB][Q:1/4=89] (3[B,-G][B,-A][B,GB][Q:1/4=82] (3Ed[Fc] | %52
[Q:1/4=75] (3BA[EG][Q:1/4=69] (3DG[CF][Q:1/4=62] [B,DG]4-[Q:1/4=55] |[Q:1/4=49] [B,DG]2 z2 z4 |] %54
V:2
 [G,,,G,,]2 [G,,G,]2 [E,,E,]2 [B,,,B,,]2 | [E,,E,]2 [E,,,E,,]2 [A,,,A,,]2 [B,,,B,,]2 | %2
 [C,,C,]2 [D,,D,]2 [F,,F,]2 [D,,D,]2 | [G,,G,]2 [E,,E,]2 [C,,C,]2 [B,,,B,,]2 | %4
 [E,,E,]2 [D,,D,]2 [C,,C,]2 [^C,,^C,]2 | %5
 [D,,D,]2 [G,,,G,,]2 (3:2:2z2 [G,,G,] (3:2:2[D,,D,]2 [B,,,B,,] | %6
 G,,,2- [G,,,F,,F,]2 [E,,E,]2 [F,,F,]2 | [E,,E,]2 [D,,D,]2 [E,,E,]2 [F,,F,]2 | z4 z2 .D,2 | %9
 (3:2:2[D,,,D,,]2[K:treble] [Ac] (3:2:2[FA]2[K:bass] [D,,D,] (3:2:2[D,A,]2 [D,,D,] [G,,G,]2 | %10
 [F,,F,]2 [E,,E,]2 [B,,B,]2 [B,,,B,,]2 | [E,,E,]2 z A, [D,,D,]2 [D,,,D,,]2 | %12
 [G,,,G,,]2 [G,,G,]2 [E,,E,]2 [B,,,B,,]2 | [E,,E,]2 [E,,,E,,]2 [A,,,A,,]2 [B,,,B,,]2 | %14
 [C,,C,]2 [D,,D,]2 [F,,F,]2 [D,,D,]2 | [G,,G,]2 [E,,E,]2 [C,,C,]2 [B,,,B,,]2 | %16
 [E,,E,]2 [D,,D,]2 [C,,C,]2 [^C,,^C,]2 | [D,,D,]2 [G,,,G,,]2 [F,,F,]2 [E,,E,]2 | %18
 [F,,F,]2 [E,,E,]2 [D,,D,]2 [E,,E,]2 | [F,,F,]2 [G,,G,]2 [D,,D,]2 (3:2:2z2 [D,,D,] | %20
 z4[K:treble] z2[K:bass] .A,2 | [G,,G,]2 [F,,F,]2 [E,,E,]2 [B,,B,]2 | %22
 [B,,,B,,]2 [E,,E,]2 z A, [D,,D,]2 | [D,,,D,,]2 [G,,,G,,]2 [G,,G,]2 [E,,E,]2 | %24
 [B,,,B,,]2 [E,,E,]2 [E,,,E,,]2 [A,,,A,,]2 | [B,,,B,,]2 [C,,C,]2 [D,,D,]2 [F,,F,]2 | %26
 [D,,D,]2 [G,,G,]2 [E,,E,]2 [C,,C,]2 | [B,,,B,,]2 [E,,E,]2 [D,,D,]2 [C,,C,]2 | %28
 [^C,,^C,]2 [D,,D,]2 [G,,,G,,]2 (3:2:2z2 [G,,G,] | z2 D,2 z4 | %30
 C2- [A,,A,C][G,,G,] C-[E,,E,C] [D,,D,B,]2 | z (3z/ C/D/ [E,,E,B,]2 [A,,,A,,A,]2 [=F,,A,]2 | %32
 [D,,D,]2 [C,,C,]2 [=F,,=F,]2 [E,,E,]2 | [D,,D,]2 [^D,,^D,]2 [E,,E,]2 C2- | %34
 [A,,-A,-C][A,,A,] [B,,G,B,]2 [C,G,C]2 [A,,A,]2 | %35
 [E,G,E]2 [=F,A,D]2 z (3z/[K:treble] E/=F/[K:bass] [G,B,D]2 | %36
 [C,E,G,C]2 [E,,E,C]2 [C,,C,]2 [=F,,=F,]2 | [D,,D,]2 [G,,G,]2 [C,,C,]2 (3:2:2z2 [C,,C,] | %38
 z2 [B,,D,G,]4 z2 | [B,,D,G,B,]4 z2 [A,,C,A,]2 | %40
 [B,,D,G,B,]2 [C,,C,]2 [D,,F,,A,,D,]2- (3:2:2[D,,F,,A,,D,]2 [D,,D,] | %41
 .D,2 z2[K:treble] z2[K:bass] .A,2 | [G,,B,,D,G,]4 z2 [D,G,B,]2- | [D,G,B,] z z2 [C,,E,,C,]2 D,2- | %44
 D, z [G,,,G,,G,B,D]2- [G,,,G,,G,B,D]->[G,,,-G,,-G,-B,-DG-] [G,,,-G,,-G,-B,-G][G,,,-G,,-G,B,] | %45
 [G,,,G,,]2 z2[K:treble] E>C[K:bass] A,2 | z z/ D/ (3:2:2B,2 E (3:2:2E,2 A, (3:2:2F,2 [FA] | %47
 [DF]2 z2 [G,,G,]2 [E,,E,]2 | [B,,,B,,]2 [E,,E,]2 [E,,,E,,]2 [A,,,A,,]2 | %49
 [B,,,B,,]2 [C,,C,]2 [D,,D,]2 [F,,F,]2 | [D,,D,]2 [G,,G,]2 [E,,E,]2 [C,,C,]2 | %51
 [B,,,B,,]2 [E,,E,]2 [D,,D,]2 [C,,C,]2 | [^C,,^C,]2 [D,,D,]2 [G,,,G,,]4- | [G,,,G,,]2 z2 z4 |] %54
V:3
 x8 | z4 z2 G2 | .E2 .A,2 .A,2 .F2 | .D2 .G2 .G2 .B2 | .[GB]2 .E2 .[CA]2 .[EG]2 | .A,2 .[B,D]2 z4 | %6
 [DGB]4 [EGc]2 [Dd]2- | [DGd]2 [B,Fd]2 G2 D2- | [DB]2 (3[DF]DE (3[A,DFA]A[A,EG] (3[DFA]c[DGB] | %9
 z4 z2 B2 | B2 [EG]2 [DG]2 [B,D]2 | B,2 z2 B2 z2 | z2 (3Bd[Fc] .G2 .B2 | .[GB]2 .E2 .E2 .G2 | %14
 .E2 .A,2 .A,2 .[FA]2 | .D2 .G2 .G2 .B2 | .[GB]2 .E2 .[CA]2 .[EG]2 | .A,2 B,2 z4 | %18
 [Dd]2- [DGd]2 [B,Fd]2 [B,G]2 | D2- [DB]2 (3[DF]DE (3[A,DFA]A[A,EG] | x8 | z2 B2 z4 | %22
 [B,D]2 B,2 z2 .[DF]2 | z2 G2 G2 .G2 | .B2 .[GB]2 .E2 .E2 | .G2 .E2 .A,2 .A,2 | %26
 .[FA]2 .D2 .G2 .G2 | .B2 .[GB]2 .E2 .[CA]2 | .[EG]2 .A,2 z4 | z4 A,2 z2 | x8 | %31
 (3[=FAd]B^G (3[DE]^FG (3[CEA]c[EB] (3ce[Gd] | .A2 .c2 .[Ac]2 .=F2 | .A2 .[FA]2 .B,2 z2 | %34
 z2 D2 (3E-[E-c][E-d] E2- | (3[EG-c-g][G-c-_b][Gca] (3ac'[G=b] (3[Ac']a=f (3[GBd]ef | %36
 z4 .E2 .[C=F]2 | (3[Ac]A[=FA] (3DE[Fd] (3EC[DG] (3EG[^FA] | %38
 (3GB[DFA] (3[B,-D-G][B,-DG-][B,-D-GA] [B,D] z (3z e[Ad] | z2 .B2 z4 | %40
 z2 (3[E-A][E-B][EG] F2 (3[DF]-[DFA][A,EG] | z4 z2 .[DF]2 | x8 | z4 z2 z/ .A3/2 | x8 | x8 | x8 | %47
 z2 .D2 .G2 .G2 | .B2 .[GB]2 .E2 .E2 | .G2 .E2 .A,2 .A,2 | .[FA]2 z2 .G2 .G2 | %51
 .B2 .[GB]2 .E2 .[CA]2 | .[EG]2 .A,2 z4 | x8 |] %54
V:4
 x8 | z4 .E2 .D2 | x8 | z4 z2 G2 | x8 | x8 | x8 | z4 z2 A,2 | x8 | z4 z2 D2- | D2 z2 z4 | x8 | %12
 G4 z2 G2 | x8 | x8 | z4 z2 G2 | x8 | x8 | x8 | A,2 z2 z4 | x8 | B2 (3z dc [EG]2 [DG]2 | x8 | %23
 z4 z2 E2 | G2 z2 z4 | x8 | x8 | G2 z2 z4 | x8 | x8 | x8 | x8 | F2 A2 z4 | x8 | x8 | x8 | x8 | x8 | %38
 x8 | (3d-[d-g][Ad-f] d2 (3[EGBd]-[E-G-ABd-][DEGBd] (3:2:4[C-E-Gc][C-E-d]/[C-E-F]/[CEe] | %40
 z4 [A,A]4 | x8 | B2 (3[GB]-[GBd][Fc] [CEGc]2 G2 | z2 [B,EG]2 z2 [DF][B,E] | x8 | x8 | x8 | x8 | %48
 G2 z2 z2 C2 | z2 C2 C2 z2 | z4 z2 E2 | G2 z2 z4 | x8 | x8 |] %54
V:5
 x8 | x8 | x8 | x8 | x8 | x8 | G,,2 z2 z4 | x8 | %8
 [G,,G,]2 [D,,D,]2 (3:2:2z2 [D,,D,] (3:2:2D,,2 D,, | x4/3[K:treble] x2[K:bass] x14/3 | x8 | %11
 z2 [C,,C,]2 z4 | x8 | x8 | x8 | x8 | x8 | x8 | x8 | x8 | %20
 (3:2:2[D,,D,]2 D,, (3:2:2[D,,,D,,]2[K:treble] [Ac] (3:2:2[FA]2[K:bass] [D,,D,] (3:2:2D,2 [D,,D,] | %21
 x8 | z4 [C,,C,]2 z2 | x8 | x8 | x8 | x8 | x8 | x8 | %29
 (3:2:2[F,,F,]2 [E,,E,] A,2- [C,,C,A,]2 [B,,,B,,B,]2 | [A,,,A,,]2 z2 .[=F,,=F,]2 z2 | %31
 [B,,,B,,]2 z2 z4 | x8 | z4 z2 [A,,,A,,]2 | x8 | z4 D,2[K:treble][K:bass] z2 | x8 | x8 | %38
 (3:2:2[B,,,B,,]2 [D,,D,] G,,2 [G,,,G,,]2 [E,,G,,C,E,]2 | z2 [E,,,E,,]2 [E,G,B,D]2 E,F, | x8 | %41
 (3:2:2D,,2 [D,,D,] (3:2:2[D,,,D,,]2[K:treble] [Ac] (3:2:2[FA]2[K:bass] [D,,D,] (3:2:2D,2 [D,D] | %42
 z2 [F,,,F,,]2 [E,,G,,C,E,]2 B,,2 | [B,,,B,,]2 [E,,B,,E,]2 z B,/C/ D,,2 | %44
 [D,,,D,,]2 G4 (3:2:2D2 G | D2 (3:2:2z2[K:treble] G z4[K:bass] | [G,,,G,,]8- | [G,,,G,,]4 z4 | x8 | %49
 x8 | x8 | x8 | x8 | x8 |] %54
V:6
 x8 | x8 | x8 | x8 | x8 | x8 | x8 | x8 | x8 | x8 | x8 | x8 | x8 | x8 | x8 | x8 | x8 | x8 | x8 | %19
 x8 | x8 | D4 z4 | x8 | x8 | x8 | x8 | x8 | x8 | x8 | x8 | x8 | x8 | x8 | x8 | x8 | x8 | x8 | x8 | %38
 x8 | [DG]4 z4 | x8 | x8 | x8 | x8 | x8 | x8 | x8 | x8 | x8 | x8 | x8 | x8 | x8 | x8 |] %54
V:7
 x8 | x8 | x8 | x8 | x8 | x8 | x8 | x8 | x8 | x4/3[K:treble] x2[K:bass] x14/3 | x8 | x8 | x8 | x8 | %14
 x8 | x8 | x8 | x8 | x8 | x8 | x10/3[K:treble] x2[K:bass] x8/3 | x8 | x8 | x8 | x8 | x8 | x8 | x8 | %28
 x8 | x8 | x8 | x8 | x8 | x8 | x8 | x16/3[K:treble] x2/3[K:bass] x2 | x8 | x8 | x8 | x8 | x8 | %41
 x10/3[K:treble] x2[K:bass] x8/3 | x8 | x8 | x8 | z2 [G,,,G,,]6[K:treble][K:bass] | x8 | x8 | x8 | %49
 x8 | x8 | x8 | x8 | x8 |] %54

